ix/message-time_linear.svg

<svg viewBox="0 0 24 24" fill="none" xmlns="http://www.w3.org/2000/svg" height="1em" width="1em">
  <path d="M22 7.42993V13.4299C22 14.9299 21.5 16.1799 20.62 17.0599C19.75 17.9299 18.5 18.4299 17 18.4299V20.5599C17 21.3599 16.11 21.84 15.45 21.4L11 18.4299H8.88C8.96 18.1299 9 17.8199 9 17.4999C9 16.4799 8.61 15.54 7.97 14.83C7.25 14.01 6.18 13.4999 5 13.4999C3.88 13.4999 2.86 13.96 2.13 14.71C2.04 14.31 2 13.8799 2 13.4299V7.42993C2 4.42993 4 2.42993 7 2.42993H17C20 2.42993 22 4.42993 22 7.42993Z" stroke="#292D32" stroke-width="1.5" stroke-miterlimit="10" stroke-linecap="round" stroke-linejoin="round"/>
  <path d="M9 17.5C9 18.7 8.47001 19.77 7.64001 20.5C6.93001 21.12 6.01 21.5 5 21.5C2.79 21.5 1 19.71 1 17.5C1 16.24 1.58 15.11 2.5 14.38C3.19 13.83 4.06 13.5 5 13.5C7.21 13.5 9 15.29 9 17.5Z" stroke="#292D32" stroke-width="1.5" stroke-miterlimit="10" stroke-linecap="round" stroke-linejoin="round"/>
  <path d="M5.25 16.25V17.75L4 18.5" stroke="#292D32" stroke-width="1.5" stroke-miterlimit="10" stroke-linecap="round" stroke-linejoin="round"/>
  <path d="M8.5 10.5H15.5" stroke="#292D32" stroke-width="1.5" stroke-miterlimit="10" stroke-linecap="round" stroke-linejoin="round"/>
</svg>

<svg viewBox="0 0 24 24" fill="none" xmlns="http://www.w3.org/2000/svg" height="1em" width="1em">
  <path d="M22 7.43v6c0 1.5-.5 2.75-1.38 3.63-.87.87-2.12 1.37-3.62 1.37v2.13c0 .8-.89 1.28-1.55.84L11 18.43H8.88c.08-.3.12-.61.12-.93 0-1.02-.39-1.96-1.03-2.67A3.944 3.944 0 0 0 5 13.5c-1.12 0-2.14.46-2.87 1.21-.09-.4-.13-.83-.13-1.28v-6c0-3 2-5 5-5h10c3 0 5 2 5 5Z" stroke="#292D32" stroke-width="1.5" stroke-miterlimit="10" stroke-linecap="round" stroke-linejoin="round"/>
  <path d="M9 17.5c0 1.2-.53 2.27-1.36 3a4 4 0 0 1-2.64 1c-2.21 0-4-1.79-4-4 0-1.26.58-2.39 1.5-3.12A3.999 3.999 0 0 1 9 17.5Z" stroke="#292D32" stroke-width="1.5" stroke-miterlimit="10" stroke-linecap="round" stroke-linejoin="round"/>
  <path d="M5.25 16.25v1.5L4 18.5m4.5-8h7" stroke="#292D32" stroke-width="1.5" stroke-miterlimit="10" stroke-linecap="round" stroke-linejoin="round"/>
</svg>
